X:8
T:A-major Sonata 483
C:Scarlatti
N:TablEdited by Joseph S Papiez
L:1/8
Q:1/4=172
M:2/2
K:A
e4 e4 | e6ae | gfed c2B2 | cde2 z2ac | edcB A2G2 | {G}A2E4ce | d2B2 E2d2 | (3dedc4ce | 
d2b4d2 | (3dedc4ac | B2f2 z2A2 | (3ABAG4eB | B2f2 z2A2 | (3ABAG4eB | B2B2 B2eB | 
G2A2 z2eA | ^A2B2 z2eB | B2c2 z2ac | ^d2bd d2bd | e2be f2bf | "VII"g2ab agfe | 
"VII"{d}^d2B2 z2b=g | =g2g2 g2g2 | {a}=gfe2 z2be | e2e2 e2e2 | {f}ed=c2 =c'4 | 
"VII"z2ba =gfe^d | e6B=G | =G2G2 G2G2 | G2A2 z2e=c | A2A2 A2A2 | ^A2B2 z2b=g | 
e2e2 e2e2 | {f}ed=c2 =c'4 | "VII"z2ba =gfe^d | e2b2 c'2^d'e' | "IV"b2ag "II"a2gf | 
g2e'2 ^d'c'ba | g2fe f2e^d | e2B2 c2^de | B2AG A2GF | G2e2 ^dcBA | G2FE F2E^D | 
E8 | e4 e4 | e6ae | gfed c2B2 | cde2 z2ac | edcB A2G2 | {G}A2E4ce | d2B2 E2d2 | 
(3dedc4ce | d2b4d2 | (3dedc4ac | B2f2 z2A2 | (3ABAG4eB | B2f2 z2A2 | (3ABAG4eB | 
B2B2 B2eB | G2A2 z2eA | ^A2B2 z2eB | B2c2 z2ac | ^d2bd d2bd | e2be f2bf | "VII"g2ab agfe | 
"VII"{d}^d2B2 z2b=g | =g2g2 g2g2 | {a}=gfe2 z2be | e2e2 e2e2 | {f}ed=c2 =c'4 | 
"VII"z2ba =gfe^d | e6B=G | =G2G2 G2G2 | G2A2 z2e=c | A2A2 A2A2 | ^A2B2 z2b=g | 
e2e2 e2e2 | {f}ed=c2 =c'4 | "VII"z2ba =gfe^d | e2b2 c'2^d'e' | "IV"b2ag "II"a2gf | 
g2e'2 ^d'c'ba | g2fe f2e^d | e2B2 c2^de | B2AG A2GF | G2e2 ^dcBA | G2FE F2E^D | 
E6eB | B2B2 B2B2 | GAB2 z2eB | B2B2 B2B2 | ^ABc2 z2c'^a | =g2e2 e2c2 | "II"def2 "VII"z2bf | 
f2bf f2f2 | b=gaf e2ae | e2ae e2e2 | af=ge d2ad | c2ac B2aB | A2eA B2eB | c2ac d2ad | 
e2fe dcBA | {=G}^G2E4e=c | =c2c2 c2c2 | {d}=cBA2 z2eA | A2A2 A2A2 | DGBd =f4 | 
z2ed =cBAG | A6e=c | =c2c2 c2c2 | "III"c2d2 z2a=f | d2d2 d2d2 | ^d2e2 z2=c'a | 
e2e2 e2e2 | "VII"=f2d2 z2d'b | e2=c'a d2bg | a2e2 f2ga | fedc d2cB | c2a2 gfed | 
c2BA B2AG | A4 fdga | fedc d2cB | c2a2 gfed | ceBA BeAG | A6eB | B2B2 B2B2 | GAB2 z2eB | 
B2B2 B2B2 | ^ABc2 z2c'^a | =g2e2 e2c2 | "II"def2 "VII"z2bf | f2bf f2f2 | b=gaf e2ae | 
e2ae e2e2 | af=ge d2ad | c2ac B2aB | A2eA B2eB | c2ac d2ad | e2fe dcBA | {=G}^G2E4e=c | 
=c2c2 c2c2 | {d}=cBA2 z2eA | A2A2 A2A2 | DGBd =f4 | z2ed =cBAG | A6e=c | =c2c2 c2c2 | 
"III"c2d2 z2a=f | d2d2 d2d2 | ^d2e2 z2=c'a | e2e2 e2e2 | "VII"=f2d2 z2d'b | e2=c'a d2bg | 
a2e2 f2ga | fedc d2cB | c2a2 gfed | c2BA B2AG | A4 fdga | fedc d2cB | c2a2 gfed | 
ceBA BeAG | A8 | 
 

